src/assets/media/icon_area.svg

<svg width="16" height="16" viewBox="0 0 16 16" fill="none" xmlns="http://www.w3.org/2000/svg">
    <path d="M0.0166016 7.09961V0.349609H6.7666V7.09961H0.0166016ZM0.0166016 15.6496V8.89961H6.7666V15.6496H0.0166016ZM8.5666 7.09961V0.349609H15.3166V7.09961H8.5666ZM8.5666 15.6496V8.89961H15.3166V15.6496H8.5666ZM1.36658 5.74963H5.41662V1.69959H1.36658V5.74963ZM9.91659 5.74963H13.9666V1.69959H9.91659V5.74963ZM9.91659 14.2996H13.9666V10.2496H9.91659V14.2996ZM1.36658 14.2996H5.41662V10.2496H1.36658V14.2996Z"
          fill="#667085"/>
</svg>

<svg width="16" height="16" fill="none" xmlns="http://www.w3.org/2000/svg">
    <path d="M.017 7.1V.35h6.75V7.1H.017zm0 8.55V8.9h6.75v6.75H.017zm8.55-8.55V.35h6.75V7.1h-6.75zm0 8.55V8.9h6.75v6.75h-6.75zm-7.2-9.9h4.05V1.7h-4.05v4.05zm8.55 0h4.05V1.7h-4.05v4.05zm0 8.55h4.05v-4.05h-4.05v4.05zm-8.55 0h4.05v-4.05h-4.05v4.05z"
          fill="#667085"/>
</svg>
